assets/Page facing up/Flat/page_facing_up_flat.svg

<svg width="32" height="32" viewBox="0 0 32 32" fill="none" xmlns="http://www.w3.org/2000/svg">
<path d="M20.3432 2.29289C20.1556 2.10536 19.9013 2 19.6361 2H7C5.89543 2 5 2.89543 5 4V28C5 29.1046 5.89543 30 7 30H25C26.1046 30 27 29.1046 27 28V9.36394C27 9.09872 26.8946 8.84437 26.7071 8.65683L20.3432 2.29289Z" fill="#B4ACBC"/>
<path d="M19.6821 3.00001L7 3C6.44772 3 6 3.44772 6 4V28C6 28.5523 6.44772 29 7 29L25 29C25.5523 29 26 28.5523 26 28V9.45333L19.6821 3.00001Z" fill="#F3EEF8"/>
<path d="M9.5 12H22.5C22.7761 12 23 12.2239 23 12.5C23 12.7761 22.7761 13 22.5 13H9.5C9.22386 13 9 12.7761 9 12.5C9 12.2239 9.22386 12 9.5 12ZM9.5 15C9.22386 15 9 15.2239 9 15.5C9 15.7761 9.22386 16 9.5 16H22.5C22.7761 16 23 15.7761 23 15.5C23 15.2239 22.7761 15 22.5 15H9.5ZM9 18.5C9 18.2239 9.22386 18 9.5 18H22.5C22.7761 18 23 18.2239 23 18.5C23 18.7761 22.7761 19 22.5 19H9.5C9.22386 19 9 18.7761 9 18.5ZM9.5 21C9.22386 21 9 21.2239 9 21.5C9 21.7761 9.22386 22 9.5 22H17.5C17.7761 22 18 21.7761 18 21.5C18 21.2239 17.7761 21 17.5 21H9.5Z" fill="#998EA4"/>
<path d="M26 9.45325H21.3892C20.4464 9.45325 19.6821 8.68896 19.6821 7.74614V3L26 9.45325Z" fill="#CDC4D6"/>
</svg>

<svg xmlns="http://www.w3.org/2000/svg" width="32" height="32" fill="none"><path fill="#B4ACBC" d="M20.343 2.293A1 1 0 0 0 19.636 2H7a2 2 0 0 0-2 2v24a2 2 0 0 0 2 2h18a2 2 0 0 0 2-2V9.364a1 1 0 0 0-.293-.707l-6.364-6.364Z"/><path fill="#F3EEF8" d="M19.682 3H7a1 1 0 0 0-1 1v24a1 1 0 0 0 1 1h18a1 1 0 0 0 1-1V9.453L19.682 3Z"/><path fill="#998EA4" d="M9.5 12h13a.5.5 0 0 1 0 1h-13a.5.5 0 0 1 0-1Zm0 3a.5.5 0 0 0 0 1h13a.5.5 0 0 0 0-1h-13ZM9 18.5a.5.5 0 0 1 .5-.5h13a.5.5 0 0 1 0 1h-13a.5.5 0 0 1-.5-.5Zm.5 2.5a.5.5 0 0 0 0 1h8a.5.5 0 0 0 0-1h-8Z"/><path fill="#CDC4D6" d="M26 9.453h-4.61a1.707 1.707 0 0 1-1.708-1.707V3L26 9.453Z"/></svg>
